X:1
T:Title
%%score { ( 1 4 ) | ( 2 3 ) }
L:1/8
M:3/8
K:C
V:1 treble nm="Grand Piano"
V:4 treble 
V:2 bass 
V:3 bass 
V:1
 z z[Q:1/4=81] [EG] | [EG][_E^F][=EG] | [Ec]3 | E3 | ED[G,CE] | [EG]3 | F2 [B,DF] | [B,DF]EF | d3 | %9
 c3 | BAB |[M:1/4] c2 |[M:1/8] [EG] |[M:3/8] A2 A | z z G |[M:2/4] [EG]3 [EG] |[M:3/8] [Ge]2 [Ge] | %17
 [Ge][Fd][Ec] | [CE][EG][Ec] |[M:1/4] B2 |[M:1/8] G |[M:3/8] d2 d | d2 c | Bcd | %24
 [Ec]2 G[Q:1/4=80] | %25
 A2 c[Q:1/4=79][Q:1/4=77][Q:1/4=76][Q:1/4=75][Q:1/4=74][Q:1/4=73][Q:1/4=71][Q:1/4=70][Q:1/4=69][Q:1/4=68] | %26
 BAB[Q:1/4=67][Q:1/4=66][Q:1/4=64][Q:1/4=63][Q:1/4=62] |[M:1/4] [Ec]2 |] %28
V:2
 z z [C,C] | [C,C]2 [C,C] | [C,G,]3 | [C,G,C]3 | CB,C, | z3 | D2 G, | z[K:treble] C[G,B,D] | %8
 [G,B,F]3 | [G,CE]3 | [G,DF]2 [G,DF] |[M:1/4][K:bass] [G,CE]2 |[M:1/8] [C,C] | %13
[M:3/8] [F,CF]2 [F,CF] | [G,CE]2 (3[B,D]/C/D/ |[M:2/4] [C,C]3 [C,C] |[M:3/8] [C,C]2 [C,C] | %17
 [C,C]2 [C,C] | [C,G,]2 [C,G,] |[M:1/4][K:treble] [G,D]2 |[M:1/8] [G,CE] | %21
[M:3/8] [G,B,F]2 [G,B,F] | [G,B,F]2 [G,CE] | D[CE][G,B,F] | [C,C]2 [E,C] | [F,CF]2 [F,A,F] | %26
 [G,F]2 [G,DF] |[M:1/4][K:bass] [C,C]2 |] %28
V:3
 x3 | x3 | x3 | x3 | [C,G,]2 z | G,,3- | G,,2 z | G,2[K:treble] z | x3 | x3 | x3 | %11
[M:1/4][K:bass] x2 |[M:1/8] x |[M:3/8] x3 | z z G, |[M:2/4] x4 |[M:3/8] x3 | x3 | x3 | %19
[M:1/4][K:treble] x2 |[M:1/8] x |[M:3/8] x3 | x3 | G,2 z | x3 | x3 | x3 |[M:1/4][K:bass] x2 |] %28
V:4
 x3 | x3 | x3 | x3 | x3 | G,3- | G,2 z | x3 | x3 | x3 | x3 |[M:1/4] x2 |[M:1/8] x |[M:3/8] x3 | %14
 G2 (3z/ E/F/ |[M:2/4] x4 |[M:3/8] x3 | x3 | x3 |[M:1/4] x2 |[M:1/8] x |[M:3/8] x3 | x3 | x3 | x3 | %25
 x3 | x3 |[M:1/4] x2 |] %28

